X: 1
T: The Rose Tree
N: BAGEDCDD, EGGAGABAA, BAGEDCDD, EGGAGABGG
N: BABC’D’C’B, AE’E’D’E’AA, BAGEDCDD, EGGAGABGG
R: polka
M: 2/4
L: 1/8
K: Dmaj
B/A/ |: GE DC | D2 D3/ E/ | G G A G/A/ | B A A B/A/ | 
     | GE DC | D2 D3/ E/ | G G A G/A/ | B G G2 | 
 B A B c | d2 c B| A e e | d e A A | 
B/A/ | GE DC | D2 D3/ E/ | G G A G/A/ | B G G2 :| 
